src/basic/800/u25bc-down.svg

<svg width="9" height="16" viewBox="0 0 9 16" fill="none" xmlns="http://www.w3.org/2000/svg">
<path fill-rule="evenodd" clip-rule="evenodd" d="M8.70503,6.05424l-0.37963,0.3254l-3.5,3l-0.32539,0.27891l-0.3254,-0.27891l-3.5,-3l-0.37963,-0.3254l0.65079,-0.75926l0.37963,0.3254l3.17461,2.72109l3.1746,-2.72109l0.37963,-0.3254z" fill="black"/>
</svg>

<svg width="9" height="16" viewBox="0 0 9 16" fill="none" xmlns="http://www.w3.org/2000/svg">
<path fill-rule="evenodd" clip-rule="evenodd" d="M8.70503 6.05424L8.3254 6.37964L4.8254 9.37964L4.50001 9.65855L4.17461 9.37964L0.674611 6.37964L0.294983 6.05424L0.945774 5.29498L1.3254 5.62038L4.50001 8.34147L7.67461 5.62038L8.05424 5.29498L8.70503 6.05424Z" fill="black"/>
</svg>
